icons/comment-discussion-24.svg

<svg xmlns="http://www.w3.org/2000/svg" width="24" height="24" viewBox="0 0 24 24"><path d="M1.75 1h12.5c.966 0 1.75.784 1.75 1.75v9.5A1.75 1.75 0 0114.25 14H8.061l-2.574 2.573A1.458 1.458 0 013 15.543V14H1.75A1.75 1.75 0 010 12.25v-9.5C0 1.784.784 1 1.75 1zM1.5 2.75v9.5c0 .138.112.25.25.25h2a.75.75 0 01.75.75v2.19l2.72-2.72a.749.749 0 01.53-.22h6.5a.25.25 0 00.25-.25v-9.5a.25.25 0 00-.25-.25H1.75a.25.25 0 00-.25.25z"/><path d="M22.5 8.75a.25.25 0 00-.25-.25h-3.5a.75.75 0 010-1.5h3.5c.966 0 1.75.784 1.75 1.75v9.5A1.75 1.75 0 0122.25 20H21v1.543a1.457 1.457 0 01-2.487 1.03L15.939 20H10.75A1.75 1.75 0 019 18.25v-1.465a.75.75 0 011.5 0v1.465c0 .138.112.25.25.25h5.5a.75.75 0 01.53.22l2.72 2.72v-2.19a.75.75 0 01.75-.75h2a.25.25 0 00.25-.25v-9.5z"/></svg>

<svg xmlns="http://www.w3.org/2000/svg" width="24" height="24" viewBox="0 0 24 24">
  <defs/>
  <path d="M1.75,1 L14.25,1 C15.216,1 16,1.784 16,2.75 L16,12.25 C16,13.216 15.216,14 14.25,14 L8.061,14 L5.487,16.573 C5.07,16.989 4.444,17.114 3.899,16.889 C3.355,16.663 3,16.132 3,15.543 L3,14 L1.75,14 C0.784,14 0,13.216 0,12.25 L0,2.75 C0,1.784 0.784,1 1.75,1 Z M1.5,2.75 L1.5,12.25 C1.5,12.388 1.612,12.5 1.75,12.5 L3.75,12.5 C4.164,12.5 4.5,12.836 4.5,13.25 L4.5,15.44 L7.22,12.72 C7.361,12.579 7.551,12.5 7.75,12.5 L14.25,12.5 C14.388,12.5 14.5,12.388 14.5,12.25 L14.5,2.75 C14.5,2.612 14.388,2.5 14.25,2.5 L1.75,2.5 C1.612,2.5 1.5,2.612 1.5,2.75 Z"/>
  <path d="M22.5,8.75 A0.25 0.25 0 0 0 22.25,8.5 L18.75,8.5 A0.75 0.75 0 0 1 18.75,7 L22.25,7 C23.216,7 24,7.784 24,8.75 L24,18.25 A1.75 1.75 0 0 1 22.25,20 L21,20 L21,21.543 A1.457 1.457 0 0 1 18.513,22.573 L15.939,20 L10.75,20 A1.75 1.75 0 0 1 9,18.25 L9,16.785 A0.75 0.75 0 0 1 10.5,16.785 L10.5,18.25 C10.5,18.388 10.612,18.5 10.75,18.5 L16.25,18.5 A0.75 0.75 0 0 1 16.78,18.72 L19.5,21.44 L19.5,19.25 A0.75 0.75 0 0 1 20.25,18.5 L22.25,18.5 A0.25 0.25 0 0 0 22.5,18.25 L22.5,8.75 Z"/>
</svg>
